X: 21170
T: Kathleen's Favourite
R: jig
M: 6/8
K: Fmajor
C|:~F3 AFA|GAG FAc|~f3 cAF|AG^F GAG|
FAc fef|afd cAF|CDF GcB|1 AFE FCD:|2 AFE FAc||
|:~f3 gfg|afd cAF|CDF AGF|
[1 AG^F GAc|~f3 gfg|afd cAF|CDF GcB|AFE F2 e:|
[2 AG^F GAG|FAc Bcd|ceg f2 g|afd cAG|AFE F2||

